img/advantages/05.svg

<svg width="100" height="100" viewBox="0 0 100 100" fill="none" xmlns="http://www.w3.org/2000/svg">
<path fill-rule="evenodd" clip-rule="evenodd" d="M68.8108 13.5915C68.8067 11.7338 67.408 10.3405 65.639 10.3447C63.8289 10.349 62.4714 11.7422 62.4755 13.5999L62.4796 16.5553L38.0432 16.5891L38.0391 13.6337C38.035 11.776 36.6774 10.3827 34.8673 10.387C33.0572 10.387 31.6996 11.7845 31.7038 13.6421L31.7079 16.8087C20.2302 17.8768 12.9157 25.7847 12.9322 38.0243L12.9774 69.2445C12.9939 82.5396 21.3121 90.8908 34.3983 90.8739L63.4297 90.8358C57.7577 87.2784 54.0006 81.0674 54.0006 74C54.0006 69.7612 55.3521 65.8304 57.6577 62.5954C57.1976 62.2672 56.8976 61.729 56.8976 61.1207V55.2586C56.8976 54.2588 57.7081 53.4482 58.7079 53.4482H64.57C65.5698 53.4482 66.3803 54.2588 66.3803 55.2586V55.6303C68.8703 54.5813 71.6159 54 74.5006 54C79.6312 54 84.3215 55.8387 87.9171 58.8774L87.8868 37.7583C87.8745 25.5989 80.2926 17.67 68.8149 16.758L68.8108 13.5915ZM38.0515 23.091L62.4878 23.0573L62.4919 26.4771C62.4919 28.2926 63.8536 29.728 65.6637 29.7238C67.4327 29.7238 68.8273 28.2841 68.8273 26.4686L68.8232 23.2177C76.8863 23.927 81.3787 28.6894 81.5556 37.7668V39.2445L19.2717 39.3289L19.2675 38.0159C19.2552 28.8583 23.6941 24.079 31.7161 23.2641L31.7202 26.5151C31.7202 28.3348 33.0819 29.766 34.892 29.7618C36.7021 29.7618 38.0556 28.3263 38.0556 26.5066L38.0515 23.091ZM22.4147 55.2586C22.4147 54.2588 23.2252 53.4482 24.225 53.4482H30.0871C31.0869 53.4482 31.8974 54.2588 31.8974 55.2586V61.1207C31.8974 62.1205 31.0869 62.931 30.0871 62.931H24.225C23.2252 62.931 22.4147 62.1205 22.4147 61.1207V55.2586ZM24.225 68.9658C23.2252 68.9658 22.4147 69.7763 22.4147 70.7762V76.6382C22.4147 77.6381 23.2252 78.4486 24.225 78.4486H30.0871C31.0869 78.4486 31.8974 77.6381 31.8974 76.6382V70.7762C31.8974 69.7763 31.0869 68.9658 30.0871 68.9658H24.225ZM39.6564 55.2586C39.6564 54.2588 40.4669 53.4482 41.4667 53.4482H47.3288C48.3286 53.4482 49.1391 54.2588 49.1391 55.2586V61.1207C49.1391 62.1205 48.3286 62.931 47.3288 62.931H41.4667C40.4669 62.931 39.6564 62.1205 39.6564 61.1207V55.2586ZM41.4667 68.9658C40.4669 68.9658 39.6564 69.7763 39.6564 70.7762V76.6382C39.6564 77.6381 40.4669 78.4486 41.4667 78.4486H47.3288C48.3286 78.4486 49.1391 77.6381 49.1391 76.6382V70.7762C49.1391 69.7763 48.3286 68.9658 47.3288 68.9658H41.4667Z" fill="#9EA3B5"/>
<path fill-rule="evenodd" clip-rule="evenodd" d="M74.5697 57.7588C65.2854 57.7588 57.7594 65.0918 57.7594 74.1381C57.7594 83.1844 65.2854 90.5174 74.5697 90.5174C83.8541 90.5174 91.3801 83.1844 91.3801 74.1381C91.3801 65.0918 83.8541 57.7588 74.5697 57.7588ZM76.811 67.241C76.811 66.2412 76.0005 65.4307 75.0007 65.4307C74.0008 65.4307 73.1903 66.2412 73.1903 67.241V75.6634C73.1903 76.378 73.6106 77.0257 74.2633 77.3168L78.5736 79.2392C79.4867 79.6465 80.5571 79.2364 80.9644 78.3232C81.3716 77.4101 80.9615 76.3397 80.0484 75.9325L76.811 74.4886V67.241Z" fill="#9EA3B5"/>
</svg>

<svg width="100" height="100" viewBox="0 0 100 100" fill="none" xmlns="http://www.w3.org/2000/svg"><path fill-rule="evenodd" clip-rule="evenodd" d="M68.81 13.591c-.003-1.857-1.402-3.25-3.171-3.246-1.81.004-3.168 1.397-3.163 3.255l.004 2.955-24.437.034-.004-2.955c-.004-1.858-1.362-3.251-3.172-3.247-1.81 0-3.167 1.397-3.163 3.255l.004 3.167c-11.478 1.068-18.792 8.976-18.776 21.215l.045 31.22c.017 13.296 8.335 21.647 21.421 21.63l29.032-.038C57.758 87.278 54 81.067 54 74c0-4.239 1.352-8.17 3.658-11.405a1.808 1.808 0 01-.76-1.474v-5.862c0-1 .81-1.81 1.81-1.81h5.862c1 0 1.81.81 1.81 1.81v.371A20.873 20.873 0 0174.5 54c5.131 0 9.822 1.839 13.417 4.877l-.03-21.119c-.013-12.16-7.594-20.088-19.072-21l-.004-3.166zm-30.759 9.5l24.437-.034.004 3.42c0 1.816 1.362 3.251 3.172 3.247 1.769 0 3.163-1.44 3.163-3.255l-.004-3.251c8.063.709 12.556 5.471 12.733 14.549v1.477l-62.284.085-.005-1.313c-.012-9.158 4.427-13.937 12.45-14.752l.003 3.251c0 1.82 1.362 3.251 3.172 3.247 1.81 0 3.164-1.436 3.164-3.255l-.005-3.416zM22.415 55.259c0-1 .81-1.81 1.81-1.81h5.862c1 0 1.81.81 1.81 1.81v5.862c0 1-.81 1.81-1.81 1.81h-5.862c-1 0-1.81-.81-1.81-1.81v-5.862zm1.81 13.707c-1 0-1.81.81-1.81 1.81v5.862c0 1 .81 1.81 1.81 1.81h5.862c1 0 1.81-.81 1.81-1.81v-5.862c0-1-.81-1.81-1.81-1.81h-5.862zm15.431-13.707c0-1 .81-1.81 1.81-1.81h5.863c1 0 1.81.81 1.81 1.81v5.862c0 1-.81 1.81-1.81 1.81h-5.862c-1 0-1.81-.81-1.81-1.81v-5.862zm1.81 13.707c-1 0-1.81.81-1.81 1.81v5.862c0 1 .81 1.81 1.81 1.81h5.863c1 0 1.81-.81 1.81-1.81v-5.862c0-1-.81-1.81-1.81-1.81h-5.862z" fill="#9EA3B5"/><path fill-rule="evenodd" clip-rule="evenodd" d="M74.57 57.759c-9.285 0-16.81 7.333-16.81 16.38 0 9.045 7.525 16.378 16.81 16.378 9.284 0 16.81-7.333 16.81-16.379 0-9.046-7.526-16.38-16.81-16.38zm2.241 9.482a1.81 1.81 0 00-3.62 0v8.422c0 .715.42 1.363 1.072 1.654l4.31 1.922a1.81 1.81 0 101.475-3.306l-3.237-1.444V67.24z" fill="#9EA3B5"/></svg>
